X: 39073
T: Swedish Scales
R: reel
M: 4/4
K: Gmajor
|:B E2 G4 B|E2 G4 B E-|E G4 c3|B4 G4|
E4 G A3|e2 G2 B4|1 F8:|2 c4 G A3||
G4 B E2 G-|G3 A G2 A2-|A d2 c2 B3|
F2 E2 F2 G2-|G2 A6|B E2 G4 A|
G2 A4 d2|c2 B4 A2-|A2 G3 E3-|
E D3 E F3|E2 F2 G4|A4 G A3|G8||

